app/assets/images/Contenido/Odin/Variedad.svg

<svg fill="none" height="129" viewBox="0 0 130 129" width="130" xmlns="http://www.w3.org/2000/svg" xmlns:xlink="http://www.w3.org/1999/xlink"><clipPath id="a"><path d="m.532227 0h129v129h-129z"/></clipPath><g clip-path="url(#a)"><path d="m65.0359 1.89014v14.90786c-13.2364 0-25.2157 5.3925-33.8601 14.0999l-10.5401-10.5403c11.3406-11.40631 27.0459-18.46746 44.4002-18.46746z" fill="#fdb441"/><path d="m65.0391 1.89014v14.90786c13.2364 0 25.2156 5.3925 33.8601 14.0999l10.5398-10.5403c-11.3403-11.40631-27.0456-18.46746-44.3999-18.46746z" fill="#57be92"/><path d="m65.0366 112.203v14.907c-17.2228 0-32.8197-6.955-44.1401-18.21l10.5403-10.5399c8.6238 8.5559 20.4921 13.8429 33.5998 13.8429z" fill="#57be92"/><path d="m65.0364 122.411v4.7c-17.2218 0-32.8203-6.957-44.1399-18.211l.3887-.389c10.777 8.78 24.5299 14.041 39.5101 14.041 1.4263 0 2.84-.048 4.2411-.141z" fill="#22b27f"/><path d="m98.8984 30.8977 10.5406-10.54c11.35 11.28 18.136 27.1496 18.207 44.4027h-14.908c-.07-13.1382-5.188-25.279-13.8396-33.8627z" fill="#fd4755"/><path d="m123.225 64.7603c.121-1.5903.181-3.1959.181-4.8165 0-14.9825-5.263-28.7357-14.041-39.5126l.074-.073c11.349 11.279 18.138 27.1504 18.208 44.4024z" fill="#fb2b3a"/><path d="m31.4388 98.3602-10.5426 10.5408c-11.35065-11.2805-18.39694-26.8876-18.46749-44.1406h14.90789c.0705 13.1379 5.4504 25.0164 14.1022 33.5998z" fill="#fd4755"/><path d="m98.6357 98.3602 10.5433 10.5408c11.35-11.2805 18.396-26.8876 18.467-44.1406h-14.908c-.071 13.1379-5.451 25.0164-14.1023 33.5998z" fill="#8ac9fe"/><path d="m127.647 64.7604c-.071 17.252-7.119 32.8606-18.469 44.1396l-4.4-4.4c10.431-10.2945 17.265-24.2268 18.446-39.7394z" fill="#60b7ff"/><path d="m65.0391 112.203v14.907c17.2228 0 32.8197-6.955 44.1399-18.21l-10.5401-10.5399c-8.6238 8.5559-20.4921 13.8429-33.5998 13.8429z" fill="#fdb441"/><path d="m109.179 108.9c-11.3197 11.254-26.9181 18.211-44.1399 18.211v-4.7c15.4546-1.035 29.3743-7.677 39.7399-17.911z" fill="#fea613"/><path d="m31.1762 30.8977-10.5401-10.54c-11.35057 11.2798-18.13684 27.1494-18.20739 44.4027h14.90789c.0705-13.1382 5.1879-25.279 13.8396-33.8627z" fill="#8ac9fe"/><path d="m129.53 64.5003c-.01-7.4955-1.302-15.0311-3.832-22.0156-2.856-7.8826-7.283-15.1629-12.926-21.3601-2.54-2.7889-5.138-5.2043-8.118-7.5356-.008-.0061-.016-.0118-.024-.0179-4.432-3.4603-9.3147-6.33831-14.4951-8.52599-7.9943-3.37613-16.6949-5.0911576-25.3532-5.0440429-8.4131.0458549-16.7859 1.6880629-24.5571 4.9248729-9.7986 4.08109-18.5652 10.67486-25.2539 18.86976-1.6072 1.9693-3.0927 4.0373-4.4472 6.1882-3.18744 5.0609-5.6946 10.5174-7.37989 16.2596-.85361 2.9083-1.49936 5.877-1.93397 8.8765-.680018 4.6953-.842778 9.3259-.502141 14.0454.904001 12.7285 5.496801 24.7226 13.255901 34.7366.0168.022.0337.044.0508.066 6.7488 8.73 15.7711 15.692 25.9653 19.986 1.3351.562 2.689 1.079 4.0586 1.551.9864.339 2.062-.186 2.4016-1.172.3397-.987-.1849-2.062-1.1718-2.402-8.2463-2.838-15.5798-7.338-21.6828-13.046l7.9006-7.899c8.4046 7.734 19.478 12.608 31.6634 13.067v11.135c-3.229-.099-6.4479-.449-9.593-1.05-1.0247-.197-2.0151.475-2.2109 1.501-.196 1.024.4759 2.014 1.5009 2.21 3.9911.764 8.0924 1.151 12.1926 1.151 1.9395 0 3.9244-.092 5.8548-.265 1.1817-.106 2.4255-.248 3.6271-.424.0143-.002.0287-.004.0428-.006 9.8959-1.456 19.2359-5.178 27.4056-10.907.006-.004.012-.009.019-.013 1.213-.853 2.422-1.767 3.574-2.701 1.572-1.275 3.11-2.648 4.555-4.061 2.113-2.066 4.08-4.282 5.897-6.612.912-1.169 1.786-2.369 2.617-3.597 2.455-3.6306 4.514-7.506 6.172-11.5773 2.401-5.8994 3.967-12.4524 4.5-18.8081.154-1.8347.23-3.6802.227-5.5283zm-62.6014-60.68823c.0126-.15521 5.2798.38321 5.6265.42579.0086.00101.0169.00227.0255.00353 11.1077 1.3696 20.8075 5.52627 29.7314 12.25331.394.2976 4.452 3.8652 4.436 3.8816l-7.8694 7.8694c-2.4212-2.2638-5.0654-4.2885-7.8873-6.0277-5.8425-3.6008-12.5884-6.1153-19.4339-6.8409-.3313-.035-4.6238-.5054-4.6288-.4334 0-.001 0-11.03766 0-11.13163zm43.8604 61.59253c-.065 3.4716-.509 6.9276-1.332 10.2281-.916 3.674-2.282 7.2371-4.082 10.5691-3.328 6.1602-8.0723 11.53-13.7689 15.5992-6.7087 4.793-14.7094 7.713-22.9073 8.366-1.2182.097-2.4404.146-3.6624.146-23.6717 0-43.2074-18.047-45.5722-41.1047-.9441-9.293 1.0713-19.083 5.691-27.2308.0162-.0282.0315-.0567.0477-.0849.0617-.1101.1259-.2187.1887-.3283 7.9371-13.6663 22.7352-22.8763 39.6448-22.8763 14.1758 0 27.7775 6.7636 36.3916 18.0124 3.126 4.0826 5.561 8.6882 7.161 13.5756 1.562 4.7709 2.298 9.9669 2.2 15.1286zm-47.6399-61.59279v11.13619c-12.3161.4633-23.4959 5.4381-31.9324 13.3176l-7.8909-7.8906c10.8621-10.2821 24.8793-16.10993 39.8233-16.56319zm-54.10104 37.23089c.64625-1.5583 1.35624-3.0901 2.12944-4.5895.7834-1.5187 1.676-3.0912 2.5901-4.5237 2.0007-3.1358 4.3056-6.1045 6.8954-8.8727l7.8636 7.8636c-2.4777 2.6714-4.6382 5.6404-6.452 8.8296-3.9599 6.847-6.3279 14.7234-6.6006 23.1207h-11.12028c.2517-7.5824 1.82815-14.9162 4.69434-21.828zm11.86404 65.1693c-.1421.142-4.1871-4.92-4.6842-5.583-1.7521-2.3369-3.3104-4.8319-4.6916-7.4046-2.79134-5.1993-4.81929-10.8036-5.9974-16.5861-.66666-3.2721-1.06223-6.613-1.1819-9.9415-.00051-.0156-.00076-.0315-.00151-.0474 3.70316 0 7.43981.1311 11.13421-.0078.1834 11.3363 5.1549 22.6985 12.7066 31.0569.0494.0547.5905.6402.5895.6412-.0015.0023-7.8734 7.8723-7.8737 7.8723zm85.2759 3.004c-1.874 1.762-4.02 3.402-6.119 4.891-1.5391 1.091-3.1276 2.113-4.7618 3.056-1.4784.853-3.0133 1.655-4.559 2.378-4.0851 1.911-8.3834 3.358-12.7706 4.302-1.4278.308-2.8672.561-4.3134.766-1.5036.212-3.0151.372-4.5303.473-.1124.008-2.2023.126-2.2048.107v-11.132c.1501-.005.2998-.014.45-.021 5.6656-.262 11.2898-1.493 16.5407-3.653 5.2963-2.179 10.1927-5.294 14.431-9.144.0209-.018.2562-.236.2575-.235.005.005 7.8717 7.87 7.8717 7.87.025.025-.094.156-.292.342zm19.541-42.0327c-.164 3.5881-.647 7.1096-1.421 10.5945-.555 2.5029-1.249 4.903-2.115 7.3116-1.35 3.7558-3.078 7.3721-5.138 10.7752-1.758 2.904-3.75 5.6544-5.97 8.2204-.009.011-.017.021-.026.031-.146.169-1.802 2.143-1.897 2.095-.002-.002-7.871-7.8718-7.872-7.8718.164.1633 4.882-6.1042 5.272-6.6993 3.118-4.7495 5.398-10.0352 6.713-15.56.495-2.0836.86-4.2408 1.079-6.3441.023-.2136.315-3.0856.229-3.0856h11.132c.028-.0003.029.2122.014.5331zm-11.13-4.3126c-.399-12.2874-5.289-23.4583-13.078-31.9223l7.89-7.8906c10.185 10.8873 15.933 24.8944 16.323 39.8126z" fill="#000"/><path d="m97.5152 79.8926v-32.0475l-31.5359-16.1717c-.5921-.3036-1.294-.3036-1.8858 0l-31.5359 16.1717v32.0478c0 .7752.4339 1.485 1.1235 1.8387l31.3552 16.079 31.3552-16.079c.6898-.3537 1.1237-1.0637 1.1237-1.839z" fill="#fedba6"/><path d="m97.5157 47.8438v32.0478c0 .775-.4341 1.4868-1.1234 1.8403l-4.4001 2.2567c.3003-.3636.4747-.8279.4747-1.3177v-37.4171z" fill="#fece85"/><path d="m65.036 31.4452v66.3649l-31.3559-16.0782c-.6891-.3535-1.1235-1.0652-1.1235-1.8402v-32.0478l31.5354-16.1717c.2978-.1512.6208-.227.944-.227z" fill="#fdb441"/><path d="m97.5154 47.8439-32.4794 16.6561-32.4794-16.6561 31.5354-16.1717c.5933-.3028 1.295-.3028 1.8883 0z" fill="#ffefd2"/><path d="m99.4044 47.8632v-.0181c0-.0033-.0008-.0068-.0008-.0101-.0073-.8017-.4356-1.3074-1.068-1.6926-3.1567-1.9226-6.6674-3.4189-9.9548-5.1047-3.0924-1.5858-6.1849-3.1716-9.2773-4.7576-.928-.4762-2.0675-.1096-2.5437.8191s-.1096 2.0675.8193 2.5437l15.9938 8.2017-28.3368 14.532-28.3368-14.532 28.2564-14.4899c.0504-.026.1106-.026.1613 0l4.4015 2.257c.9277.4759 2.0675.1093 2.5437-.8191.4762-.9287.1096-2.0675-.8193-2.5437l-4.4013-2.257c-1.1305-.58-2.4802-.5797-3.6105 0 0 0-31.5358 16.1717-31.5404 16.1744-.5951.3067-1.012 1.0023-1.0219 1.6667 0 .004-.0007.0078-.0007.0118v.0217c0 .0091-.0003.0184 0 .0275v31.9986c0 1.4911.8241 2.84 2.1509 3.5203l31.3552 16.079c.0108.0055.0222.009.033.0143.5054.2467 1.1564.2459 1.6606-.0007.0101-.0051.0209-.0084.031-.0136l31.3554-16.0793c1.3268-.6802 2.1507-2.0292 2.1507-3.5202v-31.9969c-.0003-.0109-.0005-.0217-.0005-.0323zm-64.8613 32.1869c-.0592-.0305-.096-.0907-.096-.1575v-28.9556l28.6996 14.7179v29.0633zm60.986 0-28.6034 14.6681v-29.0633l28.6994-14.7179v28.9556c0 .0668-.0368.127-.096.1575z" fill="#000"/></g></svg>

<svg width="130" height="129" viewBox="0 0 130 129" fill="none" xmlns="http://www.w3.org/2000/svg">
<g clip-path="url(#clip0_11_7165)">
<path d="M65.0359 1.89014V16.798C51.7995 16.798 39.8202 22.1905 31.1758 30.8979L20.6357 20.3576C31.9763 8.95129 47.6816 1.89014 65.0359 1.89014Z" fill="#FDB441"/>
<path d="M65.0391 1.89014V16.798C78.2755 16.798 90.2547 22.1905 98.8992 30.8979L109.439 20.3576C98.0987 8.95129 82.3934 1.89014 65.0391 1.89014Z" fill="#57BE92"/>
<path d="M65.0366 112.203V127.11C47.8138 127.11 32.2169 120.155 20.8965 108.9L31.4368 98.3601C40.0606 106.916 51.9289 112.203 65.0366 112.203Z" fill="#57BE92"/>
<path d="M65.0364 122.411V127.111C47.8146 127.111 32.2161 120.154 20.8965 108.9L21.2852 108.511C32.0622 117.291 45.8151 122.552 60.7953 122.552C62.2216 122.552 63.6353 122.504 65.0364 122.411Z" fill="#22B27F"/>
<path d="M98.8984 30.8977L109.439 20.3577C120.789 31.6377 127.575 47.5073 127.646 64.7604H112.738C112.668 51.6222 107.55 39.4814 98.8984 30.8977Z" fill="#FD4755"/>
<path d="M123.225 64.7603C123.346 63.17 123.406 61.5644 123.406 59.9438C123.406 44.9613 118.143 31.2081 109.365 20.4312L109.439 20.3582C120.788 31.6372 127.577 47.5086 127.647 64.7606L123.225 64.7603Z" fill="#FB2B3A"/>
<path d="M31.4388 98.3602L20.8962 108.901C9.54555 97.6205 2.49926 82.0134 2.42871 64.7604H17.3366C17.4071 77.8983 22.787 89.7768 31.4388 98.3602Z" fill="#FD4755"/>
<path d="M98.6357 98.3602L109.179 108.901C120.529 97.6205 127.575 82.0134 127.646 64.7604H112.738C112.667 77.8983 107.287 89.7768 98.6357 98.3602Z" fill="#8AC9FE"/>
<path d="M127.647 64.7604C127.576 82.0124 120.528 97.621 109.178 108.9L104.778 104.5C115.209 94.2055 122.043 80.2732 123.224 64.7606L127.647 64.7604Z" fill="#60B7FF"/>
<path d="M65.0391 112.203V127.11C82.2619 127.11 97.8588 120.155 109.179 108.9L98.6389 98.3601C90.0151 106.916 78.1468 112.203 65.0391 112.203Z" fill="#FDB441"/>
<path d="M109.179 108.9C97.8593 120.154 82.2609 127.111 65.0391 127.111V122.411C80.4937 121.376 94.4134 114.734 104.779 104.5L109.179 108.9Z" fill="#FEA613"/>
<path d="M31.1762 30.8977L20.6361 20.3577C9.28553 31.6375 2.49926 47.5071 2.42871 64.7604H17.3366C17.4071 51.6222 22.5245 39.4814 31.1762 30.8977Z" fill="#8AC9FE"/>
<path d="M129.53 64.5003C129.52 57.0048 128.228 49.4692 125.698 42.4847C122.842 34.6021 118.415 27.3218 112.772 21.1246C110.232 18.3357 107.634 15.9203 104.654 13.589C104.646 13.5829 104.638 13.5772 104.63 13.5711C100.198 10.1108 95.3153 7.23279 90.1349 5.04511C82.1406 1.66898 73.44 -0.0460476 64.7817 0.0010671C56.3686 0.046922 47.9958 1.68913 40.2246 4.92594C30.426 9.00703 21.6594 15.6008 14.9707 23.7957C13.3635 25.765 11.878 27.833 10.5235 29.9839C7.33606 35.0448 4.8289 40.5013 3.14361 46.2435C2.29 49.1518 1.64425 52.1205 1.20964 55.12C0.529622 59.8153 0.366862 64.4459 0.707499 69.1654C1.6115 81.8939 6.2043 93.888 13.9634 103.902C13.9802 103.924 13.9971 103.946 14.0142 103.968C20.763 112.698 29.7853 119.66 39.9795 123.954C41.3146 124.516 42.6685 125.033 44.0381 125.505C45.0245 125.844 46.1001 125.319 46.4397 124.333C46.7794 123.346 46.2548 122.271 45.2679 121.931C37.0216 119.093 29.6881 114.593 23.5851 108.885L31.4857 100.986C39.8903 108.72 50.9637 113.594 63.1491 114.053V125.188C59.9201 125.089 56.7012 124.739 53.5561 124.138C52.5314 123.941 51.541 124.613 51.3452 125.639C51.1492 126.663 51.8211 127.653 52.8461 127.849C56.8372 128.613 60.9385 129 65.0387 129C66.9782 129 68.9631 128.908 70.8935 128.735C72.0752 128.629 73.319 128.487 74.5206 128.311C74.5349 128.309 74.5493 128.307 74.5634 128.305C84.4593 126.849 93.7993 123.127 101.969 117.398C101.975 117.394 101.981 117.389 101.988 117.385C103.201 116.532 104.41 115.618 105.562 114.684C107.134 113.409 108.672 112.036 110.117 110.623C112.23 108.557 114.197 106.341 116.014 104.011C116.926 102.842 117.8 101.642 118.631 100.414C121.086 96.7834 123.145 92.908 124.803 88.8367C127.204 82.9373 128.77 76.3843 129.303 70.0286C129.457 68.1939 129.533 66.3484 129.53 64.5003ZM66.9286 3.81207C66.9412 3.65686 72.2084 4.19528 72.5551 4.23786C72.5637 4.23887 72.572 4.24013 72.5806 4.24139C83.6883 5.61099 93.3881 9.76766 102.312 16.4947C102.706 16.7923 106.764 20.3599 106.748 20.3763L98.8786 28.2457C96.4574 25.9819 93.8132 23.9572 90.9913 22.218C85.1488 18.6172 78.4029 16.1027 71.5574 15.3771C71.2261 15.3421 66.9336 14.8717 66.9286 14.9437C66.9286 14.9427 66.9286 3.90604 66.9286 3.81207ZM110.789 65.4046C110.724 68.8762 110.28 72.3322 109.457 75.6327C108.541 79.3067 107.175 82.8698 105.375 86.2018C102.047 92.362 97.3027 97.7318 91.6061 101.801C84.8974 106.594 76.8967 109.514 68.6988 110.167C67.4806 110.264 66.2584 110.313 65.0364 110.313C41.3647 110.313 21.829 92.266 19.4642 69.2083C18.5201 59.9153 20.5355 50.1253 25.1552 41.9775C25.1714 41.9493 25.1867 41.9208 25.2029 41.8926C25.2646 41.7825 25.3288 41.6739 25.3916 41.5643C33.3287 27.898 48.1268 18.688 65.0364 18.688C79.2122 18.688 92.8139 25.4516 101.428 36.7004C104.554 40.783 106.989 45.3886 108.589 50.276C110.151 55.0469 110.887 60.2429 110.789 65.4046ZM63.1491 3.81181V14.948C50.833 15.4113 39.6532 20.3861 31.2167 28.2656L23.3258 20.375C34.1879 10.0929 48.2051 4.26507 63.1491 3.81181ZM9.04806 41.0427C9.69431 39.4844 10.4043 37.9526 11.1775 36.4532C11.9609 34.9345 12.8535 33.362 13.7676 31.9295C15.7683 28.7937 18.0732 25.825 20.663 23.0568L28.5266 30.9204C26.0489 33.5918 23.8884 36.5608 22.0746 39.75C18.1147 46.597 15.7467 54.4734 15.474 62.8707H4.35372C4.60542 55.2883 6.18187 47.9545 9.04806 41.0427ZM20.9121 106.212C20.77 106.354 16.725 101.292 16.2279 100.629C14.4758 98.2921 12.9175 95.7971 11.5363 93.2244C8.74496 88.0251 6.71701 82.4208 5.5389 76.6383C4.87224 73.3662 4.47667 70.0253 4.357 66.6968C4.35649 66.6812 4.35624 66.6653 4.35549 66.6494C8.05865 66.6494 11.7953 66.7805 15.4897 66.6416C15.6731 77.9779 20.6446 89.3401 28.1963 97.6985C28.2457 97.7532 28.7868 98.3387 28.7858 98.3397C28.7843 98.342 20.9124 106.212 20.9121 106.212ZM106.188 109.216C104.314 110.978 102.168 112.618 100.069 114.107C98.5299 115.198 96.9414 116.22 95.3072 117.163C93.8288 118.016 92.2939 118.818 90.7482 119.541C86.6631 121.452 82.3648 122.899 77.9776 123.843C76.5498 124.151 75.1104 124.404 73.6642 124.609C72.1606 124.821 70.6491 124.981 69.1339 125.082C69.0215 125.09 66.9316 125.208 66.9291 125.189V114.057C67.0792 114.052 67.2289 114.043 67.3791 114.036C73.0447 113.774 78.6689 112.543 83.9198 110.383C89.2161 108.204 94.1125 105.089 98.3508 101.239C98.3717 101.221 98.607 101.003 98.6083 101.004C98.6133 101.009 106.48 108.874 106.48 108.874C106.505 108.899 106.386 109.03 106.188 109.216ZM125.729 67.1833C125.565 70.7714 125.082 74.2929 124.308 77.7778C123.753 80.2807 123.059 82.6808 122.193 85.0894C120.843 88.8452 119.115 92.4615 117.055 95.8646C115.297 98.7686 113.305 101.519 111.085 104.085C111.076 104.096 111.068 104.106 111.059 104.116C110.913 104.285 109.257 106.259 109.162 106.211C109.16 106.209 101.291 98.3392 101.29 98.3392C101.454 98.5025 106.172 92.235 106.562 91.6399C109.68 86.8904 111.96 81.6047 113.275 76.0799C113.77 73.9963 114.135 71.8391 114.354 69.7358C114.377 69.5222 114.669 66.6502 114.583 66.6502H125.715C125.743 66.6499 125.744 66.8624 125.729 67.1833ZM114.599 62.8707C114.2 50.5833 109.31 39.4124 101.521 30.9484L109.411 23.0578C119.596 33.9451 125.344 47.9522 125.734 62.8704L114.599 62.8707Z" fill="black"/>
<path d="M97.5152 79.8926V47.8451L65.9793 31.6734C65.3872 31.3698 64.6853 31.3698 64.0935 31.6734L32.5576 47.8451V79.8929C32.5576 80.6681 32.9915 81.3779 33.6811 81.7316L65.0363 97.8106L96.3915 81.7316C97.0813 81.3779 97.5152 80.6679 97.5152 79.8926Z" fill="#FEDBA6"/>
<path d="M97.5157 47.8438V79.8916C97.5157 80.6666 97.0816 81.3784 96.3923 81.7319L91.9922 83.9886C92.2925 83.625 92.4669 83.1607 92.4669 82.6709V45.2538L97.5157 47.8438Z" fill="#FECE85"/>
<path d="M65.036 31.4452V97.8101L33.6801 81.7319C32.991 81.3784 32.5566 80.6667 32.5566 79.8917V47.8439L64.092 31.6722C64.3898 31.521 64.7128 31.4452 65.036 31.4452Z" fill="#FDB441"/>
<path d="M97.5154 47.8439L65.036 64.5L32.5566 47.8439L64.092 31.6722C64.6853 31.3694 65.387 31.3694 65.9803 31.6722L97.5154 47.8439Z" fill="#FFEFD2"/>
<path d="M99.4044 47.8632V47.8451C99.4044 47.8418 99.4036 47.8383 99.4036 47.835C99.3963 47.0333 98.968 46.5276 98.3356 46.1424C95.1789 44.2198 91.6682 42.7235 88.3808 41.0377C85.2884 39.4519 82.1959 37.8661 79.1035 36.2801C78.1755 35.8039 77.036 36.1705 76.5598 37.0992C76.0836 38.0279 76.4502 39.1667 77.3791 39.6429L93.3729 47.8446L65.0361 62.3766L36.6993 47.8446L64.9557 33.3547C65.0061 33.3287 65.0663 33.3287 65.117 33.3547L69.5185 35.6117C70.4462 36.0876 71.586 35.721 72.0622 34.7926C72.5384 33.8639 72.1718 32.7251 71.2429 32.2489L66.8416 29.9919C65.7111 29.4119 64.3614 29.4122 63.2311 29.9919C63.2311 29.9919 31.6953 46.1636 31.6907 46.1663C31.0956 46.473 30.6787 47.1686 30.6688 47.833C30.6688 47.837 30.6681 47.8408 30.6681 47.8448V47.8665C30.6681 47.8756 30.6678 47.8849 30.6681 47.894V79.8926C30.6681 81.3837 31.4922 82.7326 32.819 83.4129L64.1742 99.4919C64.185 99.4974 64.1964 99.5009 64.2072 99.5062C64.7126 99.7529 65.3636 99.7521 65.8678 99.5055C65.8779 99.5004 65.8887 99.4971 65.8988 99.4919L97.2542 83.4126C98.581 82.7324 99.4049 81.3834 99.4049 79.8924V47.8955C99.4046 47.8846 99.4044 47.8738 99.4044 47.8632ZM34.5431 80.0501C34.4839 80.0196 34.4471 79.9594 34.4471 79.8926V50.937L63.1467 65.6549V94.7182L34.5431 80.0501ZM95.5291 80.0501L66.9257 94.7182V65.6549L95.6251 50.937V79.8926C95.6251 79.9594 95.5883 80.0196 95.5291 80.0501Z" fill="black"/>
</g>
<defs>
<clipPath id="clip0_11_7165">
<rect width="129" height="129" fill="white" transform="translate(0.532227)"/>
</clipPath>
</defs>
</svg>
